!!!COM: Wert, Giaches de
!!!CDT:
!!!PTL: Il sesto libro de madrigali a cinque voci
!!!PPP: Venice
!!!PPR: Heir of G. Scotto
!!!PDT: 1577
!!!PUB-format:
!!!RISM: W 881
!!!rime: 541
!!!OTL: Tolse BARBARA gente il pregio a Roma
!!!AGN: Madrigal
!!!SCT: Trm0541a
!!!SCA: Trm0541a
!!!original-voices: 5
!!!extant-voices: 5
!!!complete: Y
!!!final: F
**kern	**text	**kern	**text	**kern	**text	**kern	**text	**kern	**text
*part5	*part5	*part4	*part4	*part3	*part3	*part2	*part2	*part1	*part1
*staff5	*staff5	*staff4	*staff4	*staff3	*staff3	*staff2	*staff2	*staff1	*staff1
*I"Basso	*	*I"Tenore	*	*I"Quinto	*	*I"Alto	*	*I"Canto	*
*I'B	*	*I'T	*	*I'Q	*	*I'A	*	*I'C	*
*oclefF3	*	*oclefC3	*	*oclefC3	*	*oclefC2	*	*oclefG2	*
*clefF4	*	*clefGv2	*	*clefGv2	*	*clefG2	*	*clefG2	*
*k[b-]	*	*k[b-]	*	*k[b-]	*	*k[b-]	*	*k[b-]	*
*omet(C|)	*	*omet(C|)	*	*omet(C|)	*	*omet(C|)	*	*omet(C|)	*
*M2/1	*	*M2/1	*	*M2/1	*	*M2/1	*	*M2/1	*
=1	=1	=1	=1	=1	=1	=1	=1	=1	=1
2F	Tol-	2c	Tol-	0r	.	2r	.	0r	.
4F	-se	4c	-se	.	.	2f	Tol-	.	.
4.F	Bar-	4.c	Bar-	.	.	.	.	.	.
.	.	.	.	.	.	4f	-se	.	.
8F	-ba-	8c	-ba-	.	.	.	.	.	.
4F	-ra	4c	-ra	.	.	4.f	Bar-	.	.
[2B-y	gen-	[2d	gen-	.	.	.	.	.	.
.	.	.	.	.	.	8f	-ba-	.	.
.	.	.	.	.	.	4f	-ra	.	.
=2	=2	=2	=2	=2	=2	=2	=2	=2	=2
4B-]	.	4d]	.	0r	.	2.g	gen-	0r	.
4c	-te il	4c	-te il	.	.	.	.	.	.
2.B-y	preg-	2d	preg-	.	.	.	.	.	.
.	.	.	.	.	.	4f	-te il	.	.
.	.	4d	-gio a	.	.	4g	preg-	.	.
4A	-gio a	2f	Ro-	.	.	4a	-gio a	.	.
2G	Ro-	.	.	.	.	2b-y	Ro-	.	.
.	.	4e	.	.	.	.	.	.	.
=3	=3	=3	=3	=3	=3	=3	=3	=3	=3
0F	-ma	0f	-ma	2c	Tol-	2a	-ma,	2r	.
.	.	.	.	4c	-se	2a	<tol-	2cc	Tol-
.	.	.	.	4.c	Bar-	.	.	.	.
.	.	.	.	.	.	4a	-se	4cc	-se
.	.	.	.	8c	-ba-	.	.	.	.
.	.	.	.	4c	-ra	4.a	Bar-	4.cc	Bar-
.	.	.	.	[2f	gen-	.	.	.	.
.	.	.	.	.	.	8a	-ba-	8cc	-ba-
.	.	.	.	.	.	4a	-ra	4cc	-ra
=4	=4	=4	=4	=4	=4	=4	=4	=4	=4
0r	.	2r	.	4f]	.	4a	gen-	2.dd	gen-
.	.	.	.	4g	-te il	4b-y	-te il	.	.
.	.	4r	.	2.f	preg-	2a	preg-	.	.
.	.	4f	il	.	.	.	.	4cc	-te il
.	.	4d	preg-	.	.	4a	-gio a	4dd	preg-
.	.	4g	-gio a	4e	-gio a	2cc	Ro-	4ee	-gio a
.	.	2f	Ro-	2d	Ro-	.	.	2ff	Ro-
.	.	.	.	.	.	4b-y	.	.	.
=5	=5	=5	=5	=5	=5	=5	=5	=5	=5
2.C	Dell'	4g	-ma	4c	-ma	4cc	-ma>	4ee	-ma
.	.	2g	Dell'	2c	Dell'	2cc	Dell'	2ee	Dell'
4C	im-	4g	im-	4c	im-	4cc	im-	4ee	im-
2c	-pe-	2g	-pe-	2c	-pe-	2cc	-pe-	2ee	-pe-
4G	-rio e	4g	-rio e	4d	-rio e	4bnX	-rio e	4dd	-rio e
4C	dell'	4g	dell'	4c	dell'	4cc	dell'	4ee	dell'
=6	=6	=6	=6	=6	=6	=6	=6	=6	=6
2F	ar-	2a	ar-	2c	ar-	2cc	ar-	2ff	ar-
2F	-me	2f	-me	2c	-m'e	2a	-m'e	2cc	-m'e
1r	.	1r	.	4e-X	ser-	4g	ser-	4b-y	ser-
.	.	.	.	4f	-va	4d	-va	4a	-va
.	.	.	.	2d	fel-	[2f	fel-	4a	fel-
.	.	.	.	.	.	.	.	8gL	.
.	.	.	.	.	.	.	.	8fJ	.
=7	=7	=7	=7	=7	=7	=7	=7	=7	=7
1r	.	2r	.	1c	-la,	2f]	.	2a	.
.	.	1g	O	.	.	2e	-la,	2g	-la,
1c	O	.	.	1r	.	2r	.	2r	.
.	.	[2a	no-	.	.	2cc	O	2ee	O
=8	=8	=8	=8	=8	=8	=8	=8	=8	=8
2.d	no-	4a]	.	0r	.	2.a	no-	2.ff	no-
.	.	4f	-me a	.	.	.	.	.	.
.	.	2f	lei	.	.	.	.	.	.
4B-y	-me a	.	.	.	.	4b-y	-me a	4dd	-me a
4c	lei	4e	fa-	.	.	4g	lei	4cc	lei
4d	fa-	2f	-ta-	.	.	4f	fa-	4b-y	fa-
2c	-ta-	.	.	.	.	2g	-ta-	2cc	-ta-
.	.	4e	.	.	.	.	.	.	.
=9	=9	=9	=9	=9	=9	=9	=9	=9	=9
2F	-le,	2f	-le,	2r	.	2a	-le,	1cc	-le!
4r	.	4r	.	2a	O	4r	.	.	.
4F	<o	4f	<o	.	.	4cc	<o	.	.
2.c	no-	2.e	no-	2.g	no-	4cc	no-	1r	.
.	.	.	.	.	.	4g	-me a	.	.
.	.	.	.	.	.	2cc	lei	.	.
4F	-me a	4f	-me a	4a	-me a	.	.	.	.
=10	=10	=10	=10	=10	=10	=10	=10	=10	=10
4G	lei	4d	lei	4g	lei	4bnX	fa-	2r	.
4A	fa-	4c	fa-	4f	fa-	2cc	-ta-	.	.
2G	-ta-	2d	-ta-	2g	-ta-	.	.	4r	.
.	.	.	.	.	.	4bni	.	4.gg	Ec-
1C	-le!>	[1c	-le!>	4e	-le!	[1cc	-le!>	.	.
.	.	.	.	.	.	.	.	8gg	-co
.	.	.	.	4.g	Ec-	.	.	4gg	no-
.	.	.	.	.	.	.	.	4gg	-vel-
.	.	.	.	8g	-co	.	.	.	.
.	.	.	.	4a	no-	.	.	4ff	-la
=11	=11	=11	=11	=11	=11	=11	=11	=11	=11
4r	.	1c]	.	2.g	-vel-	1cc]	.	4.ee	Bar-
4.c	Ec-	.	.	.	.	.	.	.	.
.	.	.	.	.	.	.	.	8ee	-ba-
.	.	.	.	.	.	.	.	4ee	-ra
8c	-co	.	.	.	.	.	.	.	.
4c	no-	.	.	4g	-la	.	.	2ee	Vin-
4c	-vel-	1r	.	4.g	Bar-	2r	.	.	.
4B-y	-la	.	.	.	.	.	.	4dd	-ci-
.	.	.	.	8d	-ba-	.	.	.	.
4.A	Bar-	.	.	[2e	-ra	4r	.	[2cc	-tri-
.	.	.	.	.	.	[4cc	Ec-	.	.
8A	-ba-	.	.	.	.	.	.	.	.
=12	=12	=12	=12	=12	=12	=12	=12	=12	=12
4A	-ra	1r	.	4e]	.	8ccL]	.	4cc]	.
.	.	.	.	.	.	8ccJ	-co	.	.
2A	Vin-	.	.	2e	Vin-	4cc	no-	4.a	-ce an-
.	.	.	.	.	.	4cc	-vel-	.	.
.	.	.	.	.	.	.	.	8a	-co
4G	-ci-	.	.	4g	-ci-	4b-y	-la	4b-y	la
2.F	-tri-	4r	.	2.c	-tri-	4.a	Bar-	2cc	do-
.	.	4.f	Ec-	.	.	.	.	.	.
.	.	.	.	.	.	8a	-ba-	.	.
.	.	.	.	.	.	4a	-ra	2cc	-ma,
.	.	8f	-co	.	.	.	.	.	.
[4F	-ce an-	4f	no-	[4c	-ce an-	[4a	Vin-	.	.
=13	=13	=13	=13	=13	=13	=13	=13	=13	=13
8FL]	.	4f	-vel-	8cL]	.	4a]	.	2r	.
8FJ	-co	.	.	8cJ	-co	.	.	.	.
4C	la	4e	-la	4c	la	4g	-ci-	.	.
2D	do-	4.d	Bar-	2A	do-	2.f	-tri-	4r	.
.	.	.	.	.	.	.	.	4.ff	Ec-
.	.	8d	-ba-	.	.	.	.	.	.
2BB-y	-ma,	4d	-ra	2B-y	-ma,	.	.	.	.
.	.	.	.	.	.	.	.	8ff	-co
.	.	2d	Vin-	.	.	4.f	-ce an-	4ff	no-
2r	.	.	.	2r	.	.	.	4ff	-vel-
.	.	.	.	.	.	8f	-co	.	.
.	.	4c	-ci-	.	.	4g	la	4ee	-la
=14	=14	=14	=14	=14	=14	=14	=14	=14	=14
4r	.	2.B-y	-tri-	4r	.	2b-y	do-	4.dd	Bar-
4.BB-y	Ec-	.	.	4.f	Ec-	.	.	.	.
.	.	.	.	.	.	.	.	8dd	-ba-
.	.	.	.	.	.	2b-y	-ma,	4dd	-ra
8BB-y	-co	.	.	8f	-co	.	.	.	.
4BB-y	no-	4.B-y	-ce an-	4f	no	.	.	2dd	Vin-
4BB-y	-vel-	.	.	4f	vel-	4r	.	.	.
.	.	8B-y	-co	.	.	.	.	.	.
4C	-la	4G	la	4e	-la	2g	Vin-	4cc	-ci-
4.G	Bar-	[2G	do-	4.d	Bar-	.	.	[2bnX	-tri-
.	.	.	.	.	.	4g	-ci-	.	.
8G	-ba-	.	.	8d	-ba-	.	.	.	.
=15	=15	=15	=15	=15	=15	=15	=15	=15	=15
4G	-ra	2G]	.	4d	-ra	4g	-tri-	4b]	.
2G	Vin-	.	.	2d	Vin-	4.b-y	-ce an-	4.dd	-ce an-
.	.	2G	-ma.	.	.	.	.	.	.
.	.	.	.	.	.	8b-y	-co	8dd	-co
4C	-ci-	.	.	4c	-ci-	4g	la	4ee-X	la
2.G	-tri-	1r	.	2.BnX	-tri-	[1g	do-	2dd	do-
.	.	.	.	.	.	.	.	4dd	-ma,
[4BnX	-ce an-	.	.	[4d	-ce an-	.	.	[4dd	la
=16	=16	=16	=16	=16	=16	=16	=16	=16	=16
8BL]	.	2r	.	8dL]	.	1g]	.	4dd]	.
8BnXiJ	-co	.	.	8dJ	-co	.	.	.	.
4c	la	.	.	4e-X	la	.	.	2cc	do-
2G	do-	2G	Et	2d	do-	.	.	.	.
.	.	.	.	.	.	.	.	4bnXi	.
[1C	-ma.	4G	a	2c	-ma.	1e	-ma.	2cc	-ma.
.	.	4G	qual	.	.	.	.	.	.
.	.	4G	più	4r	.	.	.	4r	.
.	.	4G	fa-	4G	Et	.	.	4ee	Et
=17	=17	=17	=17	=17	=17	=17	=17	=17	=17
0C]	.	1.g	-mo-	4G	a	4r	.	4ee	a
.	.	.	.	4G	qual	4c	Et	4ee	qual
.	.	.	.	4G	più	4c	a	4ee	più
.	.	.	.	4G	fa-	4c	qual	4ee	fa-
.	.	.	.	2g	-mo-	4c	più	2.ee	-mo-
.	.	.	.	.	.	4c	fa-	.	.
.	.	2g	-sa in	2c	-sa in	4cc	-mo-	.	.
.	.	.	.	.	.	4cc	-sa in	4ee	-sa in
=18	=18	=18	=18	=18	=18	=18	=18	=18	=18
1r	.	4f	lei	4d	lei	4a	lei	4dd	lei
.	.	4g	si	4c	si	4cc	si	4ee	si
.	.	2a	no-	2f	no-	2cc	no-	2ff	no-
2r	.	2g	-ma,	2c	-ma,	2cc	-ma,	1ee	-ma
2C	Et	4r	.	4r	.	4r	.	.	.
.	.	4g	Et	4c	<Et	4cc	<Et	.	.
=19	=19	=19	=19	=19	=19	=19	=19	=19	=19
4C	a	4e	a	4c	a	4g	a	0r	.
4C	qual	4e	qual	4c	qual	4g	qual	.	.
4C	più	4e	più	4c	più	4g	pi u	.	.
4C	fa-	4e	fa-	4c	fa-	4g	fa-	.	.
2c	-mo-	2.f	-mo-	2F	-mo-	2.a	-mo-	.	.
2F	-sa in	.	.	2c	-sa in	.	.	.	.
.	.	4f	-sa in	.	.	4a	-sa in	.	.
=20	=20	=20	=20	=20	=20	=20	=20	=20	=20
4G	lei	4d	lei	4B-y	lei	4g	lei	1r	.
4F	si	4f	si	4c	si	4a	si	.	.
2B-y	no-	2f	no-	2d	no-	2b-y	no-	.	.
2F	-ma	2f	-ma>	1c	-ma	2a	-ma>	4r	.
.	.	.	.	.	.	.	.	4.a	Tol-
4r	.	4r	.	.	.	4r	.	.	.
.	.	.	.	.	.	.	.	8b-y	-to
[4F	Tol-	[4f	Tol-	.	.	[4a	Tol-	4cc	lo
=21	=21	=21	=21	=21	=21	=21	=21	=21	=21
8FL]	.	8fL]	.	1r	.	8aL]	.	4cc	sce-
8FJ	-to	8gJ	-to	.	.	8b-yJ	-to	.	.
4F	lo	4a	lo	.	.	4cc	lo	4a	-tro e
4G	sce-	4g	sce-	.	.	4b-y	sce-	4dd	ti-
4C	-tro e	4e	-tro e	.	.	4g	-tro e	4cc	-to-
4F	ti-	4.f	ti-	4r	.	4.a	ti-	4cc	-lo
4D	-to-	.	.	4.d	Tol-	.	.	4dd	di
.	.	8e	-to-	.	.	8g	-to-	.	.
4D	-lo	4d	-lo	.	.	4f	-lo	2dd	bel-
.	.	.	.	8e	-to	.	.	.	.
4D	di	4A	di	4f	lo	4d	di	.	.
=22	=22	=22	=22	=22	=22	=22	=22	=22	=22
2C	bel-	2c	bel-	4e	sce-	2g	bel-	2g	-la,
.	.	.	.	4c	-tro e	.	.	.	.
2BB-y	-la,	4F	-la,	4.d	ti-	2b-y	-la,	4r	.
.	.	4.f	<Tol-	.	.	.	.	4.dd	<Tol-
.	.	.	.	8c	-to-	.	.	.	.
1r	.	.	.	4B-y	-lo	4r	.	.	.
.	.	8g	-to	.	.	.	.	8ee	-to
.	.	4a	lo	4A	di	4.cc	Tol-	4ff	lo
.	.	4g	scet-	2c	bel-	.	.	4ee	sce-
.	.	.	.	.	.	8cc	-to	.	.
.	.	4e	-ro e	.	.	4g	lo	4cc	-tro e
=23	=23	=23	=23	=23	=23	=23	=23	=23	=23
4r	.	4.f	ti-	4B-y	-la,	2b-y	sce-	4.dd	ti-
4.B-y	<Tol-	.	.	4.d	<Tol-	.	.	.	.
.	.	8e	-to-	.	.	.	.	8cc	-to-
.	.	2d	-lo	.	.	2f	-ro	4b-y	-lo
8c	-to	.	.	8e	-to	.	.	.	.
4d	lo	.	.	4f	lo	.	.	4a	di
4c	sce-	4g	di	4e	sce-	4r	.	2cc	bel-
4A	-tro e	2f	bel-	4c	-tro e	4cc	e	.	.
4.B-y	ti-	.	.	4.f	ti-	4.dd	ti-	4b-y	-la,>
.	.	4d	-la,>	.	.	.	.	[4dd	di
8A	-to-	.	.	8f	-to-	8cc	-to-	.	.
=24	=24	=24	=24	=24	=24	=24	=24	=24	=24
4G	-lo	4r	.	4g	-lo	4b-y	-lo	4dd]	.
4F	di	4c	di	4a	di	4cc	di	2ff	bel-
2c	bel-	2c	bel-	2g	bel-	2cc	bel-	.	.
.	.	.	.	.	.	.	.	4ee	.
2F	-la.>	2c	-la.	2f	-la.>	1a	-la.	1ff	-la.
2F	Spie-	2A	Spie-	2c	Spie-	.	.	.	.
=25	=25	=25	=25	=25	=25	=25	=25	=25	=25
4F	-ga	4A	-ga	4c	-ga	0r	.	0r	.
4E	sua	4G	sua	4c	sua	.	.	.	.
4F	squa-	4A	squa-	4d	squa-	.	.	.	.
4G	-dra in	4B-y	-dra in	4d	-dra in	.	.	.	.
4.A	cam-	4.c	cam-	4f	cam-	.	.	.	.
.	.	.	.	4e	-pi-	.	.	.	.
8B-y	.	8d	.	.	.	.	.	.	.
2c	.	4e	.	4e	-do-	.	.	.	.
.	.	4f	-pi-	8dL	.	.	.	.	.
.	.	.	.	8cJ	.	.	.	.	.
=26	=26	=26	=26	=26	=26	=26	=26	=26	=26
4BnX	-pi-	1g	-do-	4d	.	1r	.	1r	.
2c	-do-	.	.	4e	.	.	.	.	.
.	.	.	.	2d	.	.	.	.	.
4Bni	.	.	.	.	.	.	.	.	.
2c	-glio,	2e	-glio,	1c	-glio,	2r	.	2r	.
2F	<Spie-	2c	<Spie-	.	.	2f	Spie-	2a	Spie-
=27	=27	=27	=27	=27	=27	=27	=27	=27	=27
4F	-ga	4c	-ga	4r	.	4f	-ga	4a	-ga
4c	sua	4c	sua	4c	<Spie-	4e	sua	4g	sua
4A	squa-	4c	squa-	4F	-ga	4f	squa-	4a	squa-
4G	-dra in	4d	-dra in	4B-y	sua	4g	-dra in	4b-y	-dra in
4F	cam-	4f	cam-	2.A	squa-	4.a	cam-	4.cc	cam-
4c	-pi-	4e	-pi-	.	.	.	.	.	.
.	.	.	.	.	.	8b-y	.	8dd	.
4c	-do-	4e	-do-	.	.	2cc	.	4ee	.
8B-yL	.	8dL	.	4A	-dra in	.	.	4ff	-pi-
8AJ	.	8cJ	.	.	.	.	.	.	.
=28	=28	=28	=28	=28	=28	=28	=28	=28	=28
1G	.	4d	.	4d	cam-	4bnX	-pi-	1gg	-do-
.	.	4e	.	4G	-pi-	2cc	-do-	.	.
.	.	2d	.	2g	-do-	.	.	.	.
.	.	.	.	.	.	4bni	.	.	.
1C	-glio>	2c	-glio>	2g	-glio>	2cc	-glio	2ee	-glio
.	.	4r	.	4r	.	4r	.	4r	.
.	.	4c	e	4g	e	4cc	e	4ee	e
=29	=29	=29	=29	=29	=29	=29	=29	=29	=29
2r	.	2f	quel-	2a	quel-	2cc	quel-	2ff	quel-
4r	.	2c	-la,	4g	-la	4cc	-la	4ee	-la
4c	e	.	.	4g	De'	4cc	De'	4ee	De'
2d	quel-	1r	.	4f	suoi	4a	suoi	4ff	suoi
.	.	.	.	4f	pri-	4b-y	pri-	4dd	pri-
2c	-la,	.	.	4g	-gion'	[2cc	-gion'	4ee	-gion'
.	.	.	.	4g	in	.	.	4gg	in-
=30	=30	=30	=30	=30	=30	=30	=30	=30	=30
0r	.	0r	.	4.a	ca-	4cc]	.	4.ee	-ca-
.	.	.	.	.	.	2cc	in-	.	.
.	.	.	.	16gLL	.	.	.	8ff	.
.	.	.	.	16fJJ	.	.	.	.	.
.	.	.	.	4g	.	.	.	4.dd	.
.	.	.	.	4g	-te-	4.b-y	-ca-	.	.
.	.	.	.	.	.	.	.	16ccLL	.
.	.	.	.	.	.	.	.	16b-yJJ	.
.	.	.	.	4.f	-na-	.	.	4cc	.
.	.	.	.	.	.	8a	.	.	.
.	.	.	.	.	.	4.a	.	4dd	-te-
.	.	.	.	8d	.	.	.	.	.
.	.	.	.	4.e-X	.	.	.	4.b-y	-na-
.	.	.	.	.	.	8g	.	.	.
.	.	.	.	.	.	[4g	.	.	.
.	.	.	.	8d	.	.	.	8cc	.
=31	=31	=31	=31	=31	=31	=31	=31	=31	=31
0r	.	0r	.	4.d	.	8gL]	.	4.a	.
.	.	.	.	.	.	8fJ	.	.	.
.	.	.	.	.	.	2f	.	.	.
.	.	.	.	8B-y	.	.	.	8b-y	.
.	.	.	.	4.c	.	.	.	4.g	.
.	.	.	.	.	.	2e	-te-	.	.
.	.	.	.	8A	.	.	.	8a	.
.	.	.	.	4.B-y	.	.	.	4.f	.
.	.	.	.	.	.	4.d	-na-	.	.
.	.	.	.	8G	.	.	.	8g	.
.	.	.	.	4.A	.	.	.	4.e	.
.	.	.	.	.	.	8c	.	.	.
.	.	.	.	.	.	4c	.	.	.
.	.	.	.	8F	.	.	.	8f	.
=32	=32	=32	=32	=32	=32	=32	=32	=32	=32
1r	.	1r	.	4G	.	4BnX	-ta e	4d	.
.	.	.	.	4A	-ta e	2c	do-	4c	-ta e
.	.	.	.	2G	do-	.	.	2d	do-
.	.	.	.	.	.	4Bni	.	.	.
1C	<e	2r	.	1G	-ma,	2c	-ma,	2e	-ma,
.	.	2g	<e	.	.	4r	.	4r	.
.	.	.	.	.	.	4cc	e	4ee	e
=33	=33	=33	=33	=33	=33	=33	=33	=33	=33
2F	quel-	2a	quel-	2r	.	2cc	quel-	2ff	quel-
2C	-la>	4g	-la>	2c	e	4cc	-la	4ee	-la
.	.	4g	De'	.	.	4cc	de'	4ee	de'
2r	.	4f	suoi	2d	quel-	4a	suoi	4ff	suoi
.	.	4f	pri-	.	.	4b-y	pri-	4dd	pri-
4r	.	4g	-gion'	4c	-la	4cc	-gion',	4ee	-gion'
4c	De'	4g	in	4c	de'	4cc	e	[4gg	in-
=34	=34	=34	=34	=34	=34	=34	=34	=34	=34
4F	suoi	4.a	ca-	4c	suoi	2cc	quel-	4gg]	.
4F	pri-	.	.	4c	pri-	.	.	4.ff	-ca-
.	.	8f	.	.	.	.	.	.	.
4c	-gion'	4.g	.	2c	-gion	4cc	-la	.	.
.	.	.	.	.	.	.	.	8ee	.
4c	in-	.	.	.	.	4g	de'	4.ee	.
.	.	8e	.	.	.	.	.	.	.
4.B-y	-ca-	4.f	.	1r	.	2b-y	suoi	.	.
.	.	.	.	.	.	.	.	8dd	.
.	.	.	.	.	.	.	.	4.dd	.
8G	.	8g	.	.	.	.	.	.	.
4.A	.	4.e	.	.	.	2a	pri-	.	.
.	.	.	.	.	.	.	.	8cc	.
.	.	.	.	.	.	.	.	[4cc	.
8F	.	8f	.	.	.	.	.	.	.
=35	=35	=35	=35	=35	=35	=35	=35	=35	=35
4.G	.	4.d	.	0r	.	2g	-gion'	8ccL]	.
.	.	.	.	.	.	.	.	8b-yJ	.
.	.	.	.	.	.	.	.	2b-y	.
8E-X	.	8e-X	.	.	.	.	.	.	.
4.F	.	4.c	.	.	.	2f	in-	.	.
.	.	.	.	.	.	.	.	2a	-te-
8D	.	8d	.	.	.	.	.	.	.
4.E-X	.	4.B-y	.	.	.	2e-X	-ca-	.	.
.	.	.	.	.	.	.	.	4.g	-na-
8C	.	8c	.	.	.	.	.	.	.
4D	.	4A	.	.	.	2d	-te-	.	.
.	.	.	.	.	.	.	.	8f	.
4BB-y	-te-	4B-y	-te-	.	.	.	.	4f	.
=36	=36	=36	=36	=36	=36	=36	=36	=36	=36
4C	-na-	4G	-na-	2r	.	4c	-na-	4e	-ta e
4D	-ta e-	4F	-ta e	.	.	4B-y	-ta e	2f	do-
2C	-do-	2G	do-	4r	.	2c	do-	.	.
.	.	.	.	4c	in-	.	.	4e	.
2F	-ma,	2F	-ma,	4.c	-ca-	2A	-ma,	2f	-ma
.	.	.	.	8c	-te-	.	.	.	.
4r	.	4r	.	4c	-na	4r	.	4r	.
4F	e	4A	e	4F	ta e	4c	e	4f	e
=37	=37	=37	=37	=37	=37	=37	=37	=37	=37
0BB-y	do-	0B-y	do-	0F	do-	0f	do-	0d	do-
=38	=38	=38	=38	=38	=38	=38	=38	=38	=38
0Cl	-ma.	0Gl	-ma.	0cl	-ma.	0el	-ma.	0gl	-ma.
=39||	=39||	=39||	=39||	=39||	=39||	=39||	=39||	=39||	=39||
2c	So-	2e	So-	0r	.	2g	So-	0r	.
4c	-no i	4e	-no i	.	.	4g	-no i	.	.
4F	guer-	4f	guer-	.	.	4a	guer-	.	.
4c	-rie-	4e	-rie-	.	.	4g	-rie-	.	.
4d	-ri	4d	-ri	.	.	4f	-ri	.	.
2A	suoi	2c#X	suoi	.	.	4.e	suoi	.	.
.	.	.	.	.	.	8f	.	.	.
=40	=40	=40	=40	=40	=40	=40	=40	=40	=40
2B-y	mol-	4.d	mol-	1r	.	4g	.	1r	.
.	.	.	.	.	.	4.f	mol-	.	.
.	.	8d	-le	.	.	.	.	.	.
4B-y	-le	4d	ri-	.	.	.	.	.	.
.	.	.	.	.	.	8f	-le	.	.
4d	ri-	2f	-go-	.	.	4f	ri-	.	.
2c	-go-	.	.	2r	.	2g	-go-	2r	.
.	.	4e	.	.	.	.	.	.	.
2F	-re,	2f	-re,	2f	So-	4a	-re,	2cc	So-
.	.	.	.	.	.	4a	so-	.	.
=41	=41	=41	=41	=41	=41	=41	=41	=41	=41
0r	.	0r	.	4f	-no i	4a	-no i	4cc	-no i
.	.	.	.	4B-y	guer-	4b-y	guer-	4dd	guer-
.	.	.	.	4f	-rie-	4a	-rie-	4cc	-rie-
.	.	.	.	4g	-ri	4g	-ri	4b-y	-ri
.	.	.	.	2d	suoi	2f#X	suoi	2.a	suoi
.	.	.	.	2f	mol-	4.a	mol-	.	.
.	.	.	.	.	.	.	.	[4cc	mol-
.	.	.	.	.	.	8a	-le	.	.
=42	=42	=42	=42	=42	=42	=42	=42	=42	=42
0r	.	1r	.	4f	-le	4a	ri-	8ccL]	.
.	.	.	.	.	.	.	.	8ccJ	-le
.	.	.	.	4a	ri-	2cc	-go-	4cc	ri-
.	.	.	.	2g	-go-	.	.	2dd	-go-
.	.	.	.	.	.	4b-y	.	.	.
.	.	2r	.	[1c	-re,	2cc	-re,	1ee	-re,
.	.	2e	So-	.	.	2g	so-	.	.
=43	=43	=43	=43	=43	=43	=43	=43	=43	=43
1r	.	4e	-no i	1c]	.	4g	-no i	1r	.
.	.	4f	guer-	.	.	4a	guer-	.	.
.	.	4e	-rie-	.	.	4g	-rie-	.	.
.	.	4a	-ri	.	.	4f	-ri	.	.
2r	.	1g	suoi	2r	.	2e	suoi,	2r	.
2c	<So-	.	.	2g	<So-	2cc	<So-	2ee	So-
=44	=44	=44	=44	=44	=44	=44	=44	=44	=44
4c	-no i	1r	.	4g	-no i	4cc	-no i	4ee	-no i
4F	guer-	.	.	4a	guer-	4cc	guer-	4ff	guer-
4c	-rie-	.	.	4g	-rie-	4cc	-rie-	4ee	-rie-
4d	-ri	.	.	4f	-ri	4a	-ri	4dd	-ri
2A	suoi	2r	.	2e	suoi	4a	suoi>	2cc#X	suoi
.	.	.	.	.	.	2a	mol-	.	.
4d	mol-	4r	.	2f	mol-	.	.	4.dd	mol-
[4B-y	-le	[4d	mol-	.	.	[4b-y	-le	.	.
.	.	.	.	.	.	.	.	8dd	-le
=45	=45	=45	=45	=45	=45	=45	=45	=45	=45
4B-]	.	8dL]	.	4f	-le	4b-]	.	4dd	ri-
.	.	8dJ	-le	.	.	.	.	.	.
4d	ri-	4d	ri-	4f	ri-	4a	ri-	2ff	-go-
2c	-go-	4g	-go-	2g	-go-	2cc	-go-	.	.
.	.	4c	-re	.	.	.	.	4ee	.
4F	-re>	4r	.	4a	-re>	4cc	-re	4ff	-re
2F	Con	2c	Con	2f	Con	2a	Con	2cc	Con
4F	pu-	4c	pu-	4f	pu-	4a	pu-	4cc	pu-
=46	=46	=46	=46	=46	=46	=46	=46	=46	=46
2BB-y	-di-	2B-y	-di-	2f	-di-	2b-y	-di-	2dd	-di-
4BB-y	-ca	4B-y	-ca	4f	-ca	4b-y	-ca	4dd	-ca
4BB-y	bel-	4B-y	bel-	4f	bel-	4b-y	bel-	4dd	bel-
2F	-tà	2c	-tà	4f	-tà	2a	-tà	2cc	-tà
.	.	.	.	2f	sde-	.	.	.	.
2C	sde-	2c	sde-	.	.	[2g	sde-	2cc	sde-
.	.	.	.	4e	-gno	.	.	.	.
=47	=47	=47	=47	=47	=47	=47	=47	=47	=47
4G	-gno	4BnX	-gno	4d	cor-	2g]	.	4dd	-gno
4E	cor-	4c	cor-	2c	-te-	.	.	4ee	cor-
2D	-te-	2F	-te-	.	.	4f	-gno	2ff	-te-
.	.	.	.	4B-y	.	4d	cor-	.	.
[1C	-se,	[1G	-se,	4c	-se,	2g	-te-	2ee	-se,
.	.	.	.	4c	Che	.	.	.	.
.	.	.	.	4.g	quan-	2e	-se,	4r	.
.	.	.	.	.	.	.	.	4cc	Che
.	.	.	.	8f	-to	.	.	.	.
=48	=48	=48	=48	=48	=48	=48	=48	=48	=48
1C]	.	1G]	.	4.e	sfi-	4r	.	4.gg	quan-
.	.	.	.	.	.	4c	Che	.	.
.	.	.	.	8d	-da	.	.	8ff	-to
.	.	.	.	4c	più	4.cc	quan-	4.ee	sfi-
.	.	.	.	4c	<che	.	.	.	.
.	.	.	.	.	.	8b-y	-to	8dd	-da
1r	.	1r	.	4.f	quan-	4.a	sfi-	4cc	più,
.	.	.	.	.	.	.	.	4cc	<che
.	.	.	.	8e	-to	8g	-da	.	.
.	.	.	.	4.d	sfi-	[2f	più	4.ff	quan-
.	.	.	.	8c	-da	.	.	8ee	-to
=49	=49	=49	=49	=49	=49	=49	=49	=49	=49
1r	.	0r	.	2.B-y	più>	4f]	.	4.dd	sfi-
.	.	.	.	.	.	4f	tan-	.	.
.	.	.	.	.	.	.	.	8cc	-da
.	.	.	.	.	.	4g	-to	4b-y	più>
.	.	.	.	4B-y	tan-	4b-y	più	4dd	tan-
2r	.	.	.	4c	-to	8aL	pia-	4cc	-to
.	.	.	.	.	.	8gJ	.	.	.
.	.	.	.	4c	più	2g	.	4cc	più
4r	.	.	.	2d	pia-	.	.	2a	pia-
4D	Che	.	.	.	.	4f#i	.	.	.
=50	=50	=50	=50	=50	=50	=50	=50	=50	=50
4.d	quan-	2r	.	1G	-ce,	1g	-ce,	4b-y	-ce,
.	.	.	.	.	.	.	.	4g	che
8c	-to	.	.	.	.	.	.	.	.
4.B-y	sfi-	4r	.	.	.	.	.	4.dd	quan-
.	.	4G	Che	.	.	.	.	.	.
8A	-da	.	.	.	.	.	.	8cc	-to
2G	più,	4.g	quan-	4r	.	1r	.	4.b-y	sfi-
.	.	.	.	4G	Che	.	.	.	.
.	.	8f	-to	.	.	.	.	8a	-da
4r	.	4.e	sfi-	4.g	quan-	.	.	2g	più,
4C	<che	.	.	.	.	.	.	.	.
.	.	8d	-da	8f	-to	.	.	.	.
=51	=51	=51	=51	=51	=51	=51	=51	=51	=51
4.c	quan-	4c	più	4.e	sfi-	4r	.	0r	.
.	.	2e	tan-	.	.	4g	Che	.	.
8B-y	-to	.	.	8d	-da	.	.	.	.
4.A	sfi-	.	.	2.c	più	4.cc	quan-	.	.
.	.	4.f	-to	.	.	.	.	.	.
8G	-da	.	.	.	.	8b-y	-to	.	.
2.F	più>	.	.	.	.	4.a	sfi-	.	.
.	.	8g	.	.	.	.	.	.	.
.	.	2a	.	4c	tan-	.	.	.	.
.	.	.	.	.	.	8g	-da	.	.
.	.	.	.	4c	-to	4f	più	.	.
4c	tan-	4g	più	4e-X	più	4g	tan-	.	.
=52	=52	=52	=52	=52	=52	=52	=52	=52	=52
4F	-to	2f	pia-	8dL	pia-	4a	-to	4r	.
.	.	.	.	8cJ	.	.	.	.	.
4F	più	.	.	2c	.	4a	più	4cc	<Che
2G	pia-	4d	-ce,	.	.	2g	pia-	4.gg	quan-
.	.	4d	Che	4B-y	.	.	.	.	.
.	.	.	.	.	.	.	.	8ff	-to
2C	-ce,	4.g	quan-	4c	-ce,	4g	-ce,	4.ee	sfi-
.	.	.	.	4G	Che	2g	<Che	.	.
.	.	8f	-to	.	.	.	.	8dd	-da
4r	.	4.e	sfi-	4.c	quan-	.	.	2cc	più,
4C	Che	.	.	.	.	[4cc	quan-	.	.
.	.	8d	-da	8B-y	-to	.	.	.	.
=53	=53	=53	=53	=53	=53	=53	=53	=53	=53
4.F	quan-	4c	più,	4.A	sfi-	8ccL]	.	4cc	Che
.	.	.	.	.	.	8b-yJ	-to	.	.
.	.	4c	<che	.	.	4.a	sfi-	4.ff	quan-
8E	-to	.	.	8G	-da	.	.	.	.
4.D	sfi-	4.f	quan-	4F	più	.	.	.	.
.	.	.	.	.	.	8g	-da	8ee	-to
.	.	.	.	4A	tan-	2f	più	4.dd	sfi-
8C	-da	8e	-to	.	.	.	.	.	.
2.BB-y	più	4.d	sfi-	4.B-y	-to	.	.	.	.
.	.	.	.	.	.	.	.	8cc	-da
.	.	.	.	.	.	4f	tan-	2b-y	più>
.	.	8c	-da	8c	.	.	.	.	.
.	.	4B-y	più>	4d	.	4f	-to	.	.
4F	tan-	4A	tan-	4c	più	4a	più	4cc	tan-
=54	=54	=54	=54	=54	=54	=54	=54	=54	=54
4BB-y	-to	4B-y	-to	4.B-y	pia-	8gL	pia-	4dd	-to
.	.	.	.	.	.	8fJ	.	.	.
4BB-y	più	4F	più	.	.	2f	.	4dd	più
.	.	.	.	8A	.	.	.	.	.
2C	pia-	2c	pia-	2G	.	.	.	2cc	pia-
.	.	.	.	.	.	4e	.	.	.
1F	-ce.	2c	-ce.	2F	-ce.	2f	-ce.>	2cc	-ce.
.	.	4r	.	4r	.	4r	.	4r	.
.	.	4a	I	4F	I	4cc	I	4ff	I
=55	=55	=55	=55	=55	=55	=55	=55	=55	=55
0r	.	2.a	vin-	2.f	vin-	2.cc	vin-	2.ff	vin-
.	.	4g	-ti un	4c	-ti un	4cc	-ti un	4ee	-ti un
.	.	4f	ses-	4d	ses-	4a	ses-	4dd	ses-
.	.	4e	-so e	4A	-so e	4a	-so e	4cc	-so e
.	.	2d	l'al-	2B-y	l'al-	2f	l'al-	2b-y	l'al-
=56	=56	=56	=56	=56	=56	=56	=56	=56	=56
2r	.	2c	-tro,	2F	-ro,	2f	-tro,	1a	-tro,
2F	I	4r	.	4r	.	4r	.	.	.
.	.	4f	<I	4c	<I	4a	<I	.	.
2.B-y	vin-	2.f	vin-	2.d	vin-	2.b-y	vin-	1r	.
4F	-ti un	4f	-ti un	4c	-ti un	4a	-ti un	.	.
=57	=57	=57	=57	=57	=57	=57	=57	=57	=57
4G	ses-	4d	ses-	4B-y	ses-	4g	ses-	0r	.
4D	-so e	4d	-so e	4A	-so e	4f	-so e	.	.
2F	l'al-	2c	l'al-	2A	l'al-	2f	l'al-	.	.
1C	-tro;	2c	-tro;>	2G	-tro;>	1e	-tro;>	.	.
.	.	4r	.	4r	.	.	.	.	.
.	.	4c	et	4G	et	.	.	.	.
=58	=58	=58	=58	=58	=58	=58	=58	=58	=58
2r	.	4F	un	2A	un	4r	.	0r	.
.	.	4A	d'a-	.	.	4c	et	.	.
4r	.	2G	-mo-	4BnX	d'a-	4d	un	.	.
4C	et	.	.	2c	-mo-	4e	d'a-	.	.
2.D	un	2F	-re,	.	.	2.f	-mo-	.	.
.	.	.	.	4B-i	.	.	.	.	.
.	.	2r	.	4A	.	.	.	.	.
4E	d'a-	.	.	4G	.	4e	.	.	.
=59	=59	=59	=59	=59	=59	=59	=59	=59	=59
2.F	-mo-	0r	.	2.A	.	4d	.	2r	.
.	.	.	.	.	.	4c	.	.	.
.	.	.	.	.	.	4d	.	4r	.
4E	.	.	.	4G	.	4c	.	4cc	et
4D	.	.	.	4F	.	4BnXi	.	4dd	un
4C	.	.	.	2G	.	2c	.	4ee	d'a-
2D	.	.	.	.	.	.	.	[2ff	-mo-
.	.	.	.	4F	.	4Bni	.	.	.
=60	=60	=60	=60	=60	=60	=60	=60	=60	=60
2C	-re,	4r	.	1G	-re,	4c	-re,	4ff]	.
.	.	4c	et	.	.	4g	et	4ee	.
4r	.	4d	un	.	.	4.g	un	4dd	.
4C	<et	4e	d'a-	.	.	.	.	4cc	.
.	.	.	.	.	.	8a	.	.	.
2.BB-y	un	2.f	-mo-	2r	.	2.b-y	.	2.dd	.
.	.	.	.	4r	.	.	.	.	.
4C	d'a-	4e	.	4c	<et	4g	d'a-	4cc	.
=61	=61	=61	=61	=61	=61	=61	=61	=61	=61
1G	-mo-	4d	.	4d	un	1g	-mo-	4bnXi	.
.	.	4c	.	4e	d'a-	.	.	2cc	.
.	.	2d	.	4d	-mo-	.	.	.	.
.	.	.	.	4G	-re,>	.	.	4bni	.
2C	-re,>	4c	-re,	4r	.	2g	-re,	1cc	-re,
.	.	4e	L'al-	4G	L'al-	.	.	.	.
2C	L'al-	4e	-tro	4G	-tro	2g	L'al-	.	.
.	.	4e	d'in-	4G	d'in	.	.	.	.
=62	=62	=62	=62	=62	=62	=62	=62	=62	=62
4C	-tro	2g	-vi-	2c	vi-	4e	-tro	2r	.
4C	d'in-	.	.	.	.	4e	d'in-	.	.
2F	-vi-	4f	-dia,	2c	-dia,	4.a	-vi-	2cc	L'al-
.	.	4f	<L'al-	.	.	.	.	.	.
.	.	.	.	.	.	8g	.	.	.
2F	-dia,	4f	-tro	2c	<L'al-	2f	.	4a	-tro
.	.	4a	d'in-	.	.	.	.	4a	d'in-
2F	<L'al-	4.a	-vi-	4A	-tro	2f	-dia,	4.dd	-vi-
.	.	.	.	4A	d'in-	.	.	.	.
.	.	8g	.	.	.	.	.	8cc	.
=63	=63	=63	=63	=63	=63	=63	=63	=63	=63
4D	-tro	2f	.	4.d	-vi-	4r	.	4b-y	.
4D	d'in-	.	.	.	.	4d	<L'al-	2a	.
.	.	.	.	8c	.	.	.	.	.
2G	-vi-	2d	-dia:>	2B-y	.	4d	-tro	.	.
.	.	.	.	.	.	4B-y	d'in-	4g	.
[1F	-dia:	2r	.	1A	-dia:>	1c	-vi-	1a	-dia:
.	.	2f	hor	.	.	.	.	.	.
=64	=64	=64	=64	=64	=64	=64	=64	=64	=64
1F]	.	2f	co-	0r	.	2c	-dia:>	2r	.
.	.	2f	-m'è	.	.	4r	.	2cc	hor
.	.	.	.	.	.	4a	hor	.	.
1r	.	2.f	ch'u-	.	.	4a	co-	4cc	co-
.	.	.	.	.	.	4a	-m'è	4cc	-m'è
.	.	.	.	.	.	4a	ch'u-	4cc	ch'u-
.	.	4B-y	-na	.	.	4b-y	-na	4dd	-na
=65	=65	=65	=65	=65	=65	=65	=65	=65	=65
0r	.	2f	fa-	0r	.	4a	fa-	4cc	fa-
.	.	.	.	.	.	8fL	-ce	8aL	-ce
.	.	.	.	.	.	8gJ	Me-	8b-yJ	Me-
.	.	4f	-ce	.	.	1a	-des-	1cc	-des-
.	.	4f	Me-	.	.	.	.	.	.
.	.	2f	-des-	.	.	.	.	.	.
.	.	2f	-ma	.	.	2a	-ma	2cc	-ma
=66	=66	=66	=66	=66	=66	=66	=66	=66	=66
0r	.	4r	.	0r	.	4r	.	4r	.
.	.	4f	ag-	.	.	4a	ag-	4cc	ag-
.	.	4e	-giac-	.	.	4g	-giac-	4cc	-giac-
.	.	4f	-ci	.	.	4a	-ci	4cc	-ci
.	.	4B-y	l'un	.	.	4b-y	l'un	4dd	l'un
.	.	4c	che	.	.	8aL	.	8ccL	.
.	.	.	.	.	.	8gJ	.	8b-yJ	.
.	.	4d	l'al-	.	.	4f	.	4a	.
.	.	4c	-tr'ac-	.	.	4g	che	4cc	che
=67	=67	=67	=67	=67	=67	=67	=67	=67	=67
0r	.	2f	-ce-	1r	.	4a	l'al-	2.cc	l'al-
.	.	.	.	.	.	2a	-tr'ac-	.	.
.	.	4f	-se,	.	.	.	.	.	.
.	.	4B-y	che	.	.	4.g	-ce-	4b-y	-tr'ac-
.	.	4c	l'al-	2r	.	.	.	4a	-ce-
.	.	.	.	.	.	8f	.	.	.
.	.	4d	-tr'ac-	.	.	2f	.	8gL	.
.	.	.	.	.	.	.	.	8fJ	.
.	.	2c	-ce-	4r	.	.	.	2g	.
.	.	.	.	4c	hor	4e	.	.	.
=68	=68	=68	=68	=68	=68	=68	=68	=68	=68
1r	.	0F	-se,	4c	co-	0f	-se,	[0a	-se,
.	.	.	.	4c	-m'è	.	.	.	.
.	.	.	.	4c	ch'u-	.	.	.	.
.	.	.	.	4d	-na	.	.	.	.
2r	.	.	.	4c	fa-	.	.	.	.
.	.	.	.	8AL	-ce	.	.	.	.
.	.	.	.	8B-yJ	Me-	.	.	.	.
2F	hor	.	.	[2c	-des-	.	.	.	.
=69	=69	=69	=69	=69	=69	=69	=69	=69	=69
2F	co-	2r	.	2c]	.	2r	.	1a]	.
2F	-m'è	4r	.	2c	-ma,	2a	hor	.	.
.	.	4c	hor	.	.	.	.	.	.
2.F	ch'u-	4c	co-	4r	.	4a	co-	1r	.
.	.	4c	-m'è	4f	<hor	4a	-m'è	.	.
.	.	4c	ch'u-	4f	co-	4a	ch'u-	.	.
4BB-y	-na	4d	-na	4f	-m'è	4b-y	-na	.	.
=70	=70	=70	=70	=70	=70	=70	=70	=70	=70
2F	fa-	4c	fa-	4f	ch'u-	2a	fa-	0r	.
.	.	2A	-ce	4f	-na	.	.	.	.
4D	-ce	.	.	4f	fa-	4a	-ce	.	.
4G	Me-	4B-y	Me-	8dL	-ce	4g	Me-	.	.
.	.	.	.	8eJ	Me-	.	.	.	.
2F	-des-	2c	-des-	2f	-des-	2a	-des-	.	.
2F	-ma	2c	-ma	2f	-ma>	2a	-ma	.	.
=71	=71	=71	=71	=71	=71	=71	=71	=71	=71
4r	.	4r	.	4r	.	4r	.	1r	.
4F	ag-	4c	ag-	4f	ag-	4a	ag-	.	.
4E	-gia-	4c	-giac-	4g	-giac-	4g	-giac-	.	.
4F	-cci	4c	-ci	4f	-ci	4a	-ci	.	.
4BB-y	l'un	4d	l'un	4f	l'un	4b-y	l'un	2r	.
4C	che	8cL	.	4e	che	8aL	.	.	.
.	.	8B-yJ	.	.	.	8gJ	.	.	.
4D	l'al-	4A	.	4d	l'al-	4f	.	4r	.
4C	-tr'ac-	4c	che	4e	-tr'ac-	4g	che	4cc	hor
=72	=72	=72	=72	=72	=72	=72	=72	=72	=72
2F	-ce-	2.c	l'al-	2.f	-ce-	4a	l'al-	4cc	co-
.	.	.	.	.	.	2a	-tr'ac-	4cc	-m'è
4F	-se,	.	.	.	.	.	.	4cc	ch'u-
4BB-y	che	4B-y	-tr'ac-	4d	-se,	4.g	-ce-	4dd	-na
4C	l'al-	4.A	-ce-	1r	.	.	.	4cc	fa-
.	.	.	.	.	.	8f	.	.	.
4D	-tr'ac-	.	.	.	.	2f	.	8aL	-ce
.	.	16GLL	.	.	.	.	.	8b-yJ	Me-
.	.	16FJJ	.	.	.	.	.	.	.
2C	-ce-	2G	.	.	.	.	.	4cc	-des-
.	.	.	.	.	.	4e	.	4cc	-ma
=73	=73	=73	=73	=73	=73	=73	=73	=73	=73
2F	-se,	[0Fl	-se?	4r	.	[0fl	-se?	4r	.
.	.	.	.	4A	ag-	.	.	4cc	ag-
4r	.	.	.	4A	-giac-	.	.	4cc	-giac-
4F	ag-	.	.	4A	-ci	.	.	4cc	-ci
4BB-y	-giac-	.	.	4B-y	l'un	.	.	4dd	l'un
4C	-ci	.	.	8AL	.	.	.	8ccL	.
.	.	.	.	8GJ	.	.	.	8b-yJ	.
4D	l'un	.	.	4F	.	.	.	4a	.
4D	che	.	.	4f	che	.	.	4a	che
=74	=74	=74	=74	=74	=74	=74	=74	=74	=74
4D	l'al-	0F]	.	4d	l'al-	0f]	.	4a	l'al-
4F	-tr'ac-	.	.	4c	-tr'ac-	.	.	4a	-tr'ac-
2BB-y	-ce-	.	.	2d	-ce-	.	.	2b-y	-ce-
1Fl	-se?	.	.	1cl	-se?	.	.	1al	-se?
==	==	==	==	==	==	==	==	==	==
*-	*-	*-	*-	*-	*-	*-	*-	*-	*-
!!!system-decoration: [(s1)(s2)(s3)(s4)(s5)]
!!!YEM:	Giaches de Wert, "Tolse Barbara gente il pregio a Roma," 1577 (Trm 0541a; 6 Jun 2018) Tasso in Music Project (http://www.tassomusic.org) Copyright 2018 Emiliano Ricciardi
!!!RDF**kern: i = editorial accidental
!!!RDF**kern: l = terminal long
!!!ENC: Emiliano Ricciardi
!!!END: 2018
!!!EED: Ricciardi, Emiliano
!!!EEV: 2018/10/28
!!!YEC: Copyright 2018 Emiliano Ricciardi, All Rights Reserved
!!!ONB: Translated from MusicXML on 2018/10/28 and edited by Craig Stuart Sapp
